-----BEGIN PGP PUBLIC KEY BLOCK-----

mQINBGqGZb4BEADCaelfRLmjdW0aJXEdQZgi9AHC/Aixu3xDWATpuANwXJVDTwyy
7a1Ms7EYG2ch7qgtxtEYGtNgmvQNdF18uP3FOLhfzk+2wnKLsCmjhgIQ5JwnaE1O
zUATnPpXJpnZKzoii8YjJ6EecEu0sEMLyfkz6gx7CqDn2i31dBCNNkKr2lUhnVHv
ZraJuGecpe5Br9PVQlm7vCelYoCxTUpWunC4gm6s80B2GCy/IDaHS2OWUqE1PcJR
xVcqSv5IMwsvDtDSslq5NcjwAHQ4LkWKxt94j9EpgSQSNJuKc5ZWk8/Ag1jFRWTz
JJCZVsudz35FEjZESRL2ZYZSJaZJddfuGEQFZ+QjrtVaxPqf+PoX1hRgO0pdvhEF
kVyadtQuScPIPNeJ/4C2Y7EaLcRXruDb6YIqi09nuQtdrc6t/vuPu2ALFyhOSRJg
meN73pKrsOOn1d5Noo5DMqiKaQXO7unfzRSyaOxnjygNpvSAS4zhYaK5kBxMEgnx
3jqoBeeNsRc6bjT8Kq9ld/fksO1dp8Zr912VsNoivSFmOVQU8ESGJe+v/G5MZGab
xouZFN2JGuzKAQB0OmSeQ14kfgNIAo+x716PWZJOSUE/xKROtep8xf4603cxE4Nc
YLIcoSDe5BgQQTGDr5iU83IpUcT/znCwNx2p2fYLl25kcjYwZqlkZi3VPQARAQAB
tDJ4ZXJvb3RnIDw0MDA5ODAyK3hlcm9vdGdAdXNlcnMubm9yZXBseS5naXRodWIu
Y29tPokCTgQTAQoAOBYhBJJ5fdS1kqZ8Jc0QtkVd8Ue8yCwpBQJqhmW+AhsBBQsJ
CAcCBhUKCQgLAgQWAgMBAh4BAheAAAoJEEVd8Ue8yCwpdIsQAJ88Aazx0L0sq1O3
2HayDLPVnVuPr6SMh2MnRppWVvr9Uvoss+Kau9TU6s0Agpwc5q8A7uMrs241TLeL
fwDovqcA7qL/SYrQY4WhSC0YKdiWC66Q2WvHXzOkUu6HAUupdw4W1Pl4MSRnGfRJ
jdCwi95TPwLw/htUO0gq4rbSeN4VVyPoz9nyS1KH2e+OaYjKbAkQ+h1DqaqP4ZKP
qNtahumKYXUcoTb+JtplcFsEgxWtUnyzjAB4XX6K8F7/BcE3GDuME8+3y3bGXTa5
wRfLaDAL247MlYe+zM7owQk8d6Vq2yL6uZxZTqI6TCkJXVGYAe4slST56bkSNWqQ
C2VVxYahvr0IiVkJ3/2cM0gjPZWPz+lYyqu+4NBCR1dC9xrqMvb0ee8uYETVqtPf
Bl6Em4IQchFmmDmrEvkRTGR3j7hF8b66Jcy+wqdeLJIkYtoJt5IJ1uC0V9s0Nyyr
DuY4BCgS8E2IImC5wAr+mcPPQv2J0Iai7c+Xmg6Z38OT79wu3Woq79NjnQ0GRPXu
G86d16eWHw4EXSNzTSDDOr5yvbL+BynBjzwpVfTdGMsbL9dcnN1FUCNzA0tyNrgk
UKUTCkTPcpVM60n/XbJbuqHyZN1UEr2yErKLH10jSP6VntlGaCvzv5fQf5IH42I+
cHOpEp6YRQ4SnQQF3LfBGeo3nTRSuQINBGqGZcABEACSRR5yGaEykCPMjfmoP2Pq
g6Q7QxPMJWzSPcZH66Y7QmPhQlrtNZlD+C4PrcR844gm74nvKWE3DD5XHaH97iBn
7kJSdGWpCzq0Ckiycr5DFbDNl5eHh9VLf2njBg1SzQFJYoxRNZ9w/iHi0cOIPrSy
/EgKwJfq2Kr1JqI8TxRyBDiwitf4ephXQ/LK9Wvv0YQWW8LBF5wbdKEpcnqzjOTM
HHUsVATv+pC/rc4xVfq/NtK93g0uGGhYeNqyZd87BJS+IrLjAaGdvtisjJhovIB6
Ruy+NWzzWXtd6e4d4DKsjBhbT2L80eQq9iOMEjDv4WNsgTulvuT+ufwUmfHd8jZs
mPvIfpqxS58g7/QQjsczOoi/44amFf1std5cKPLBfj3IYmyRS/O57pLIlXbRF+wU
84czSxPoKNvK5pFIUbQ7RvU/K2IqPXRA/G6Vch12iK4IngQjx0bJbZt/UyokTdv0
pz9jvB4/cNsICHpABzXg9dCQVrgN8bHVZHisB1xpjx/5RNOwXPbRHzipyWBh1DDH
HbWq+ByC7x2utR8mCZVeqa5p/KSntHcB6tPZYaPvE8EQqUIFpzXVLAop3hCvt5je
Ga7UQ7hen/Y2LgH4l5FJFBPwQ8CgfhDYpg5pKc1iiKwALyVmeGfNUcKAPj48AKZF
lvMmUhxnvPkZePSEXRHkYQARAQABiQRsBBgBCgAgFiEEknl91LWSpnwlzRC2RV3x
R7zILCkFAmqGZcACGwICQAkQRV3xR7zILCnBdCAEGQEKAB0WIQT8gtVLXbPXQjbB
0blb+LIvx4+HRgUCaoZlwAAKCRBb+LIvx4+HRnaWD/9zMEsipSusaPAFE8MOmoP+
H6wQrMZkoVqpvR4pJEC7tYQPVWMUp1p2FJTfTbYdHZEDWUY2bqqxqhvdQLlj71eJ
7fbNZ3jo+JOlSZvh9hg7s4qfjInoTZkiPYuOtY/lvOLO8UU5RWWcOTdRwcK36Wws
D4LDIAtFgmTcTNH51oX9vIPSFPRA2CTocyKpVH2G3IgYzZn9vxXy95+8HvjUrtVl
OAT0UMkTI6kqWrLjlVaAGyk3IKo8WtDERw59gvE6yb4B9PfBKPEHtR25MRE606Ns
b3kqzYnja/Usa9LEe6crGcLp/xItkmFp7EvHkTSiP03d4UltPpcOmIR8Sl6flGN2
IZ4x/wCCjY2zDjPVGkuxHMmUwwJw/vo9MpUNmt0PESVwzmnCMnrHbKNlWX5WTfI7
ScPn8RyZfkdSx6Hx4IQnpVWFgT7ruOUEevM8RLKF9ZG45vAShIf3w5OAz53UmGL+
g4Y6DX9jdkBqOMjCG3Xhylu16d/KG2l1FBPzH6nhtDGIjrjhVUuMV9qBYwLLbbuN
0MRB+fHginteUVts1p83PHutPc9A/keGCobMc3xAd+XIcXo1Pq3MVHBpRglFenWF
thZNiZoInKJuMZIRzVn2fI81e2lRZMYY04LYO2bOl58lKYTha2FM3vx1A/zoTm9i
ap123QmoelGka4TBs3xPFujrD/9MscK+Ca241eD4MFI96uJWTr843WE2iKj3zlPH
oPq7EBBE2PSKCdET7/33wseguYF+gglb3/Arvck1HFajHvtTLZl59wUyHL0pV1Kx
W+VHammhB5RvAxVh65jivrzqqSrgx8/8Auwwg4+Cf4RX5i01gcjMGRruetk5SzHs
C//VNc7DjTF2QCUgVb66hasmd7RNqmimU6gPfAUgpK9ttY7Uz6+suENMjCUD7CSr
ZA9JvZs+3xLBDlwscRALQ8HXiQt4gbguaf2bSk5zpFSMxFA0TWgy54dNYOVjB6qe
mFO0xl+cxRUVsyDKYUPb0JxKFOlMI1w2K9Pq1zsV689bwSzsNVpC/qtyuAPUIQBb
wKdFSWk2dp1ACeh7Mmo1QcPWXBelAfLEVKwYdijHfB9dfGRgnxlGPEkbe2U/jjB7
+ry2QAMkfKNGHGmYNOecTPigTpHW4EJpNu8ZzZFcisu1htN5bacRFwCVUdN7nQRA
eVPTRNZZjpUpv3aBxHtmBNXV7XHxr80EiC2H8D7fTT6m5NfmeMkDjya8KAizPywz
kRgxH+zPj6T//ZSLePUBNWmP1H/j/6quoBZgqZUm69xXsA0HgGjGf3Z7pzkUzuym
s5fIjQTrEKwsqO1sudJ1J87HWpl9Q5EKFjpmvSOBh9HdrriVnGuosERdC012WNXa
Mhn0KQ==
=hBdq
-----END PGP PUBLIC KEY BLOCK-----
